packages/foundations/assets/icons/functional/images/arrows/flip_vertical.svg

<svg xmlns="http://www.w3.org/2000/svg" width="32" height="32" fill="none"><path fill="#1A1C1F" fill-rule="evenodd" d="M7.573 5.098c-.244.105-5.3 5.143-5.448 5.43-.123.235-.144.56-.053.834.045.137.761.885 2.741 2.861 2.412 2.407 2.704 2.682 2.915 2.737.856.225 1.563-.659 1.152-1.438-.04-.075-.83-.891-1.757-1.815l-1.685-1.68L11.883 12l6.445-.027.227-.15c.496-.328.582-1.064.175-1.494-.304-.322.141-.302-6.861-.302-3.536 0-6.429-.016-6.429-.035s.778-.805 1.728-1.747c1.613-1.598 1.733-1.729 1.796-1.973a1.09 1.09 0 0 0-.166-.888c-.231-.324-.818-.461-1.225-.286M23.77 15.04c-.537.1-.877.675-.729 1.234.054.205.266.438 1.801 1.978l1.741 1.746-6.456.014-6.455.015-.227.15c-.496.328-.582 1.064-.175 1.494.335.354-.199.328 6.884.343l6.421.015-1.68 1.65c-.995.977-1.722 1.733-1.781 1.852-.155.313-.133.747.051 1.026.255.385.796.535 1.25.348.225-.093 5.291-5.111 5.437-5.385.133-.251.167-.482.11-.758-.05-.246-.154-.357-2.726-2.935-1.808-1.812-2.727-2.696-2.835-2.729-.28-.084-.422-.097-.631-.058"/></svg>

<svg width="32" height="32" viewBox="0 0 32 32" fill="none" xmlns="http://www.w3.org/2000/svg"><path d="M7.573 5.098 C 7.329 5.203,2.273 10.241,2.125 10.528 C 2.002 10.763,1.981 11.088,2.072 11.362 C 2.117 11.499,2.833 12.247,4.813 14.223 C 7.225 16.630,7.517 16.905,7.728 16.960 C 8.584 17.185,9.291 16.301,8.880 15.522 C 8.840 15.447,8.050 14.631,7.123 13.707 L 5.438 12.027 11.883 12.000 L 18.328 11.973 18.555 11.823 C 19.051 11.495,19.137 10.759,18.730 10.329 C 18.426 10.007,18.871 10.027,11.869 10.027 C 8.333 10.027,5.440 10.011,5.440 9.992 C 5.440 9.973,6.218 9.187,7.168 8.245 C 8.781 6.647,8.901 6.516,8.964 6.272 C 9.041 5.973,8.979 5.638,8.798 5.384 C 8.567 5.060,7.980 4.923,7.573 5.098 M23.770 15.040 C 23.233 15.140,22.893 15.715,23.041 16.274 C 23.095 16.479,23.307 16.712,24.842 18.252 L 26.583 19.998 20.127 20.012 L 13.672 20.027 13.445 20.177 C 12.949 20.505,12.863 21.241,13.270 21.671 C 13.605 22.025,13.071 21.999,20.154 22.014 L 26.575 22.029 24.895 23.679 C 23.900 24.656,23.173 25.412,23.114 25.531 C 22.959 25.844,22.981 26.278,23.165 26.557 C 23.420 26.942,23.961 27.092,24.415 26.905 C 24.640 26.812,29.706 21.794,29.852 21.520 C 29.985 21.269,30.019 21.038,29.962 20.762 C 29.912 20.516,29.808 20.405,27.236 17.827 C 25.428 16.015,24.509 15.131,24.401 15.098 C 24.121 15.014,23.979 15.001,23.770 15.040 " fill="#1A1C1F" stroke="none" fill-rule="evenodd"></path></svg>
